X:1
T:[ID 2-35]
T:[ID 2-35]
T:Bezeichnung standardisiert: Menuett Menuet 1 ex C#
T:Urheber unbekannt Datum in der hier transkribierten schriftlichen Quelle: 1767
C:Urheber unbekannt
C:Datum in der hier transkribierten schriftlichen Quelle: 1767
L:1/8
M:3/4
K:C
V:1 treble 
V:1
 C2 (cB)(cB) | c2 BA G2 | AcBAGF | E4 D2 | G,4 (3EFG | (GF)(FE)(ED) | G,4 (3EFG | (FF)(EE) D2 | %8
 c4 d2 | (3edc (3dcB c2 | F2 E2 DB, | C6 :: c2 e2 (3efg | d2 cBAG | ABcBAG | T^F2 EF D2 | D4 d2 | %17
 (dc)(cB)(BA) | D4 c2 | (cB)(BA) G2 | AcBAG^F | G2 z GAB | c4 GE | A4 FD | G4 EC | B,3 DB,G, | %26
 G,4 (3EFG | (GF)(FE)(ED) | G,4 (3DEF | (FF)(EE) D2 | c4 d2 | (3edc (3dcB c2 | F2 E2 DB, | C6 :| %34

